X: 83
T: POLKA: Green Cottage No. 1
T: Glen Cottage No. 1
C: C: Trad.; S: Polca an Rí
C: Set Leaders: Oleg, Anton, Oliushka, Sophie
Z: Anton Zille ed.; Thady Quill at The Session
N: https://thesession.org/members/26966/sets/99681
R: Polka
M: 2/4
L: 1/8
Q: 1/4=140
K: Edor
B>A|:GE ED|B,E E>F|GF ED|GA B/c/B/A/|
GE ED|B,E EF/A/|BA GF|1 E2 E>F:|2 E2 E>A||
|:Be ef|eB BA|Be df|e2 ef|
g2 fg/f/|ed B>A|BE E/F/G/A/|1 B2 B>A:|2 B2||

